X:1
T:Ã„lplerin-Walzer  CGF (wz06836)  ABAC
T:Hanny Christen. Bd.V  Basel II, Jura. S.23  (wz06836) orig. C,G,F
T: Basel II. TÃ¤nze aus Augst. S.6-42.
T:Ãœberliefert durch Erwin Baumgartner (*1878) und Hans Tschudin (*1886)
%%MIDI program 21
P:ABAC
R:Walzer
M:3/4
L:1/4
K:C %%MIDI gchordon
[P:A] "C"Gee | d>cc | Gcc | "Dm"B>AA | Aff | "G7"e>dd | "C"cea | "G7"g3 | "C"Gee | 
d>cc | Gcc | "Dm"B>A A | A ff | "C"ece | "G7"fAB | "C"czz :: [P:B] [K:G] "G"B3 | e2d | 
"D7"F3 | FGA | B2A | c2A | "G"A2G | d3 | "C"c3 | e2d | "D7"F3 | FGA | B2A | 
c2F | ("G"G3 | G)z"_>Teil A"z :: [P:C] [K:F] "F"A3 | d2c | "C7".B.e.d | Gzc | Bed | zBd | 
"F"cdc | zFA | c3 | d2A | "C"Gce | "G7"zed | "C"g>ec | "G7"zdg | "C"c>cc | cz"_Fine"z :| 
%W:Parts: ABAC
% wz06836
% Nov 15, 2017

